X: 3233
T: JAUNTING CAR FOR SIX
%R: slip-jig
B: James Kerr "Merry Melodies" v.3 p.26 #233
Z: 2016 John Chambers <jc:trillian.mit.edu>
M: 9/8
L: 1/8
K: A
|:\
vefe c2c c3  | uefe cde fga  |\
 efe c2c c3  |  BcB B2c def ::\
 e2a agf ecA |  e2a agf e3   |\
 e2a agf ecA |  BcB B2c def :|

%%sep 1 1 500
%%sep 1 1 500

